X: 27313
T: Missouri Mud
R: reel
M: 4/4
K: Dmajor
A,B,|"D" D2 D2 F2 A2|BcdB AGFE|D2 D2 F2 A2|"A" A,2 A,A, C2 E2|
"D" D2 D2 F2 A2|BcdB AGFE|"A" A,2 A,A, C2 E2|"D" D4 fg|
"D" a2 fg a2 f2|"G" gfga b2 fg|"D" a2 fg a2 f2|"A" edcB A2 fg|
"D" a2 fg a2 f2|"G" gfga b2 fg|"D" a2 f2 "A" e3 c|"D" d4|

